src/icons/services/email.svg

<svg width="52" height="52" viewBox="0 0 52 52" fill="none" xmlns="http://www.w3.org/2000/svg">
<path d="M45.5001 7.80005H6.5001C3.7376 7.80005 1.38135 10.075 1.38135 12.9188V39.2438C1.38135 42.0063 3.65635 44.3625 6.5001 44.3625H45.5001C48.2626 44.3625 50.6188 42.0875 50.6188 39.2438V12.8375C50.6188 10.075 48.2626 7.80005 45.5001 7.80005ZM45.5001 11.4563C45.5813 11.4563 45.6626 11.4563 45.7438 11.4563L26.0001 24.1313L6.25635 11.4563C6.3376 11.4563 6.41885 11.4563 6.5001 11.4563H45.5001ZM45.5001 40.5438H6.5001C5.6876 40.5438 5.0376 39.8938 5.0376 39.0813V15.0313L24.0501 27.2188C24.6188 27.625 25.2688 27.7875 25.9188 27.7875C26.5688 27.7875 27.2188 27.625 27.7876 27.2188L46.8001 15.0313V39.1625C46.9626 39.975 46.3126 40.5438 45.5001 40.5438Z" fill="#9D74D3"/>
</svg>

<svg xmlns="http://www.w3.org/2000/svg" width="52" height="52" fill="none"  ><path d="M45.5 7.8h-39c-2.762 0-5.119 2.275-5.119 5.119v26.325c0 2.763 2.275 5.119 5.119 5.119h39c2.762 0 5.119-2.275 5.119-5.119V12.838c0-2.763-2.356-5.037-5.119-5.037zm0 3.656h.244L26 24.131 6.256 11.456H6.5h39zm0 29.088h-39c-.812 0-1.462-.65-1.462-1.462v-24.05L24.05 27.219c.569.406 1.219.569 1.869.569s1.3-.163 1.869-.569L46.8 15.031v24.131c.163.813-.487 1.381-1.3 1.381z" fill="#9d74d3"/></svg>
